X: 2022
T: Ashmolean House
R: reel
M: 4/4
K: Dmajor
|:AF~F2 EDBA|D2ED FA~A2|defd efdB|AFDE FEE2|
AF~F2 EDBA|D2ED FAA2|ABde dBA2|BDEG FDD2:|
|:defg a~a2b|afdf edBA|defg a2ab|afdf e2eg|
fd~d2 Addf|edAd e2fe|dBAF BA~A2|BDEG FDD2:|

